X:3896
L:1/8
Q:3/8=120
M:6/8
K:G
|: D | G>AG G>FG | A>BA A>GA | B>cB B>AG | A>BA A>GF | G3 E3 | D>EF G2 :: d | B>cd d>ed | 
 e>fg d2 c | Bcd ded | e>fg d>cB | c2 a B2 g | A2 f A>GA | BcB BAG | A>BA A>GF | G3 E3 | D>EF G2 :|

